!!!!SEGMENT: pl-kk--kk-i-382--007-002_anonim--nro-2-sanctus.krn
!!!cenid: 18xx:1464
!!!COM: Anonim
!!!COM-rismID: pe30004985
!!!CDT:
!!!CNT:
!!!OPR: Nro 2
!!!OTL: Sanctus
!!!OMV: 005
!!!PDT:
!!!AGN: Sacred
!!!SMS-siglum: PL-Kk
!!!SMS-shelfmark: Kk.I.382
!!!SMS-shelfwork: 002-005 M
!!!SMS-variant:
!!!SMS-altvar:
!!!NIFC-rismSourceID: 1001139090
!!!NIFC-islandoraID: pl-kk:6162
!!!URL-pdf-islandora: https://repozytorium.nifc.pl/islandora/object/pl-kk%3A6162/datastream/PDF/view
!!!URL-scan: https://polish.musicsources.pl/pl/lokalizacje/galeria/rekopisy/5994 @EN{Scan on Polish Music Herritage in Open Access Website} @PL{Skany w portalu Dziedzictwo Muzyki Polskiej w otwartym dostępie}
!!!ONB-nifc: UWAGA: obsada: S/T 1, T 2, A/B 1, B 2. Sanctus + Benedictus, Skan 0007, 0078, 0151, 0223-0224
!!!AIN: 1 alto 1 bass 2 tenor
!!!key:
**kern	**text	**kern	**text	**kern	**text	**kern	**text
*part4	*part4	*part3	*part3	*part2	*part2	*part1	*part1
*staff4	*staff4	*staff3	*staff3	*staff2	*staff2	*staff1	*staff1
*Ibass	*	*Itenor	*	*Ialto	*	*Itenor	*
*I"Basso II	*	*I"Tenore II	*	*I"Alto vel Basso I	*	*I"Soprano vel Tenore I.	*
*I'B 2	*	*I'T 2	*	*I'A (B)	*	*I'S (T 1)	*
*clefF4	*	*clefC4	*	*clefC3	*	*clefC1	*
*k[b-]	*	*k[b-]	*	*k[b-]	*	*k[b-]	*
*F:	*	*F:	*	*F:	*	*F:	*
*M4/4	*	*M4/4	*	*M4/4	*	*M4/4	*
*met(C.)	*	*met(C.)	*	*met(C.)	*	*met(C.)	*
=1	=1	=1	=1	=1	=1	=1	=1
*2\right	*	*2\right	*	*2\right	*	*2\right	*
!LO:TX:a:t=Sanctus	!	!LO:TX:a:t=Sanctus\n in F.	!	!LO:TX:a:t=Sanctus	!	!LO:TX:a:t=Sanctus.	!
!LO:TX:a:t=P:problem=napis "Sanctus" na pięciolinii przed kluczem	!	!LO:TX:a:t=P:problem=napis "Sanctus in F" na pięciolinii przed kluczem	!	!LO:TX:a:t=P:problem=napis "Sanctus" na pięciolinii przed kluczem	!	!LO:TX:a:t=P:problem=napis "Sanctus." na pięciolinii przed kluczem	!
!	!	!	!	!	!	!LO:TX:t=P:problem=all/right&colon; global	!
!LO:TX:t=P:problem=all/right&colon; global	!	!LO:TX:t=P:problem=all/right&colon; global	!	!LO:TX:t=P:problem=all/right&colon; global	!	!	!
2F\	San-	2c\	San-	2f\	San-	2a\	San-
2C/	-ctus	2c\	-ctus	2e\	-ctus	2g\	-ctus
=2	=2	=2	=2	=2	=2	=2	=2
(>4F\	san-	4F/	San-	(>8f\L	San-	8a\L	San-
.	.	.	.	8e\	.	8g\	.
4G\	.	4G/	.	8f\	.	8a\	.
.	.	.	.	8g\J	.	8b-\J	.
4A\	.	4A/	.	8f\L	.	8a\L	.
.	.	.	.	8a\	.	8cc\	.
4B-\)	.	4B-/	.	8g\	.	8b-\	.
.	.	.	.	8f\J)	.	8a\J	.
=3	=3	=3	=3	=3	=3	=3	=3
2.c\	-ctus	2.c\	-ctus	2.e\	-ctus	2.g\	-ctus
!	!	!	!	!	!	!LO:N:vis=2	!
4r	.	4r	.	4r	.	4r	.
=4	=4	=4	=4	=4	=4	=4	=4
2D\	San-	2A\	San-	2f\	San-	2dd\	San-
2AA/	-ctus	2A\	-ctus	2e\	-ctus	2cc#X\	-ctus
=5	=5	=5	=5	=5	=5	=5	=5
4D\	San-	4D/	San-	8f\L	San-	8dd\L	San-
.	.	.	.	8e\	.	8cc#X\	.
4E\	.	4E/	.	8f\	.	8dd\	.
.	.	.	.	8g\J	.	8ee\J	.
4F\	.	4F/	.	8f\L	.	8dd\L	.
.	.	.	.	8a\	.	8ff\	.
4G\	.	4G/	.	8g\	.	8ee\	.
.	.	.	.	8f\J	.	8dd\J	.
=6	=6	=6	=6	=6	=6	=6	=6
2.A\	-ctus	1A	-ctus	2.e\	-ctus	2.cc#X\	-ctus
4r	.	.	.	4r	.	4r	.
!LO:LB:g=original	!	!	!	!LO:LB:g=original	!	!LO:LB:g=original	!
=7	=7	=7	=7	=7	=7	=7	=7
4.B-X\	Do-	4.G/	Do-	4.e\	Do-	4.cc#X\	Do-
8B-\	-mi-	8G/	-mi-	8e\	-mi-	8cc#\	-mi-
2B-\	-nus	2G/	-nus	2e\	-nus	2cc#\	-nus
!	!	!LO:LB:g=original	!	!	!	!	!
=8	=8	=8	=8	=8	=8	=8	=8
(>4A\	De-	(<4F/	De-	(>4d\	De-	(>4dd\	De-
4G\)	.	4G/)	.	4e\)	.	4cc#X\)	.
(>4F\	-us	(<4A/	-us	(>4f\	-us	(>4dd\	-us
4E\)	.	4G/)	.	4e\)	.	4cc#\)	.
=9	=9	=9	=9	=9	=9	=9	=9
(>4D\	sa-	2A\	sa-	(>2f\	Sa-	2dd\	sa-
4F\	.	.	.	.	.	.	.
4A\)	.	2A\	-ba-	4e\)	.	2cc#X\	-ba-
4AA/	-ba-	.	.	4e\	-ba-	.	.
=10	=10	=10	=10	=10	=10	=10	=10
4D\	-ot	4A\	-ot	4d\	-ot	4dd\	-ot,
4F\	ple-	4c\	ple-	4a\	ple-	4ccn\	ple-
4A\	-ni	4A\	-ni	4f\	-ni	4cc\	-ni
4F\	sunt	4c\	sunt	4a\	sunt	4cc\	sunt
=11	=11	=11	=11	=11	=11	=11	=11
(>4c\	ce-	(>4f\	ce-	(>4a\	ce-	2cc\	ce-
4C/)	.	4e\)	.	4g\)	.	.	.
2C/	-li	2e\	-li	2g\	-li	2cc\	-li
.	.	.	.	.	.	.	.
=12	=12	=12	=12	=12	=12	=12	=12
4r	.	4r	.	4r	.	4r	.
4C/	ce-	4c\	ce-	4g\	ce-	4ee\	ce-
4E/	-li	4c\	-li	4g\	-li	4ee\	-li
4C/	et	4c\	et	4g\	et	4ee\	et
!LO:LB:g=original	!	!	!	!	!	!LO:LB:g=original	!
=13	=13	=13	=13	=13	=13	=13	=13
2F\	ter-	2c\	ter-	2a\	ter-	2ff\	ter-
2F\	-ra	2c\	-ra	2a\	-ra	2ff\	-ra
=14	=14	=14	=14	=14	=14	=14	=14
!	!	!	!	!LO:TX:t=P:problem=brak rozpoczęcia łuku	!	!	!
4BB-/	glo-	(>1F	glo-	(>1b-	glo-	(>1dd	glo-
4C/	.	.	.	.	.	.	.
4D/	.	.	.	.	.	.	.
4E/	.	.	.	.	.	.	.
!	!	!LO:LB:g=original	!	!LO:LB:g=original	!	!	!
=15	=15	=15	=15	=15	=15	=15	=15
!	!	!LO:TX:t=P:problem=brak zakończenia łuku	!	!	!	!	!
4F\	.	(>4A\)	-ri-	4a\	.	4cc\	.
4G\	.	4B-\)	.	4g\)	.	4b-\)	.
4A\	-ri-	(>4c\	-a	4f\	-ri-	4a\	-ri-
!	!	!	!	!	!	!LO:N:vis=4.	!
4F\	-a	4A\)	.	4a\	-a	4cc\	-a
=16	=16	=16	=16	=16	=16	=16	=16
(>4B-\	tu-	1c	tu-	(>2g\	tu-	(>2b-\	tu-
4G\	.	.	.	.	.	.	.
4c\	.	.	.	2e\)	.	2g\)	.
4C/)	.	.	.	.	.	.	.
=17	=17	=17	=17	=17	=17	=17	=17
1F	-a	1c	-a.	1f	-a	1a	-a
==18	==18	==18	==18	==18	==18	==18	==18
*	*	*M4/4	*	*M4/4	*	*M4/4	*
*	*	*met(C.)	*	*met(C.)	*	*met(C.)	*
4F\	O-	4c\	O-	1f	O-	4a\	O-
4G\	.	4B-\	.	.	.	4b-\	.
4A\	.	4A\	.	.	.	4cc\	.
4G\	.	4B-\	.	.	.	4b-\	.
=19	=19	=19	=19	=19	=19	=19	=19
4F\	-san-	4c\	-san-	4c\	-san-	4a\	-san-
4F\	-na	4c\	-na	4c\	-na	4a\	-na
4F\	in	4c\	in	4f\	in	4a\	in
4E\	ex-	4c\	ex-	4g\	ex-	4b-\	ex-
!LO:LB:g=original	!	!	!	!	!	!LO:LB:g=original	!
=20	=20	=20	=20	=20	=20	=20	=20
2F\	-cel-	2c\	-cel-	2f\	-cel-	2a\	-cel-
2C/	-sis	2c\	-sis	2e\	-sis	2g\	-sis
=21	=21	=21	=21	=21	=21	=21	=21
2C/	O-	2G/	O-	2e\	o-	2cc\	O-
4E\	-san-	4G/	-san-	4g\	-san-	4cc\	-san-
!	!	!LO:TX:i:a:t=V[olti]&colon; S[ubito]&colon;	!	!	!	!	!
!	!	!LO:TX:a:t=P:problem=napis na pięciolinii za kreską	!	!	!	!	!
4C\	-na	4G/	-na	4e\	-na	4cc\	-na
!	!	!LO:PB:g=original	!	!	!	!	!
=22	=22	=22	=22	=22	=22	=22	=22
2F\	in	2c\	in	2a\	in	2ff\	in
(>4E\	ex-	2c\	ex-	(>4b-\	ex-	(>4gg\	ex-
4F\)	.	.	.	4a\)	.	4ff\)	.
!	!	!	!	!LO:LB:g=original	!	!	!
=23	=23	=23	=23	=23	=23	=23	=23
2C/	-cel-	2c\	-cel-	2a\	-cel-	2ff\	-cel-
2C/	-sis	2c\	-sis	2g\	-sis	2ee\	-sis
=24	=24	=24	=24	=24	=24	=24	=24
(>4F\	o-	2c\	o-	2f\	o-	2a\	O-
4G\)	.	.	.	.	.	.	.
(>4A\	-san-	2e-X\	-san-	2c\	-san-	2a\	-san-
4F\)	.	.	.	.	.	.	.
=25	=25	=25	=25	=25	=25	=25	=25
2B-\	-na	2f\	-na	2d\	-na	2b-\	-na
4BB-/	in	2B-\	in	4g\	in	4ee\	in
4BB-/	ex-	.	.	4a\	ex-	4ff\	ex-
!	!	!	!	!	!	!LO:LB:g=original	!
=26	=26	=26	=26	=26	=26	=26	=26
2.BB-/	-cel-	2d\	ex-	(>4b-\	-cel-	4gg\	-cel-
.	.	.	.	4a\	.	4ff\	.
.	.	2d\	-cel-	4g\	.	4ee\	.
4BBn/	.	.	.	4f\)	.	4dd\	.
=27	=27	=27	=27	=27	=27	=27	=27
!LO:TX:i:a:t=V[olti]&colon; S[ubito]&colon;	!	!	!	!	!	!	!
!LO:TX:a:t=P:problem=napis na pięciolinii za kreską	!	!	!	!	!	!	!
1C	-sis	1c	-sis	2.g\	-sis	2.ee\	-sis
.	.	.	.	4r	.	4r	.
!LO:PB:g=original	!	!	!	!	!	!	!
=28	=28	=28	=28	=28	=28	=28	=28
(>4C\	O-	1en	O-	1b-	O-	1gg	O-
4D\	.	.	.	.	.	.	.
4E\	.	.	.	.	.	.	.
4C\)	.	.	.	.	.	.	.
=29	=29	=29	=29	=29	=29	=29	=29
(>4F\	-san-	2c\	-san-	2a\	-san-	2ff\	-san-
4G\)	.	.	.	.	.	.	.
(>4A\	-na	2A\	-na	2f\	-na	2cc\	-na
4F\)	.	.	.	.	.	.	.
=30	=30	=30	=30	=30	=30	=30	=30
4B-\	in	4B-\	in	4g\	in	4dd\	in
4G\	ex-	4B-\	ex-	4g\	ex-	4dd\	ex-
(>4c\	-cel-	2G/	-cel-	2e\	-cel-	2cc\	-cel-
4C/)	.	.	.	.	.	.	.
!	!	!LO:LB:g=original	!	!	!	!	!
=31	=31	=31	=31	=31	=31	=31	=31
2.F\	-sis	1A	-sis	2.f\	-sis	2.cc\	-sis
!	!	!	!	!LO:TX:i:a:t=V[olti]&colon; S[ubito]&colon;	!	!	!
!	!	!	!	!LO:TX:a:t=P:problem=napis na pięciolinii za kreską	!	!	!
4r	.	.	.	4r	.	4r	.
!	!	!	!	!LO:PB:g=original	!	!	!
=32	=32	=32	=32	=32	=32	=32	=32
4G\	O-	1e	O-	1b-	O-	1gg	O-
4F\	.	.	.	.	.	.	.
4E\	.	.	.	.	.	.	.
4C\	.	.	.	.	.	.	.
=33	=33	=33	=33	=33	=33	=33	=33
(>4F\	-san-	2c\	-san-	2a\	-san-	2ff\	-san-
4c\)	.	.	.	.	.	.	.
(>4A\	-na	2A\	-na	2f\	-na	2cc\	-na
4F\)	.	.	.	.	.	.	.
=34	=34	=34	=34	=34	=34	=34	=34
4B-\	in	4B-\	in	4g\	in	4dd\	in
4G\	ex-	4B-\	ex-	4g\	ex-	4dd\	ex-
(>4c\	-cel-	2G/	-cel-	2e\	-cel-	2cc\	-cel-
4C/)	.	.	.	.	.	.	.
=35	=35	=35	=35	=35	=35	=35	=35
1F	-sis.	1A	-sis.	1f	-sis.	1cc	-sis
==	==	==	==	==	==	==	==
*-	*-	*-	*-	*-	*-	*-	*-
!!!system-decoration: [(s1,s2,s3,s4)]
!!!RDF**kern: > = above
!!!RDF**kern: < = below
!!!EED: Mateusz Mrugas
!!!EEV: 2021-02-02
!!!ENC: Krzysztof Stępień
!!!END: 2021-01-27
